X:1
T:II. Là-bas, vers l'église
T:I. Chanson de la mariée
T:Traduction française par M.D Calvocoressi
T:acct de piano par
T: Maurice Ravel 
T:Cinq mélodies populaires grecques
%%score 1 { 2 | ( 3 4 ) }
L:1/8
Q:1/4=80
M:2/4
K:Bb
V:1 treble nm="Voice"
V:2 treble nm="Piano"
V:3 treble 
V:4 treble 
V:1
"^Modéré" !fermata!z4 | z4 | z d d d | d3/2 B/ c d | e3/2 d/{ef} e3/2 d/ | c2{dc} B2 | %6
w: ||Ré- veil- le-|toi, ré- veil- le-|toi per- drix mi-|gno- ne,|
 !breath!d d d d | d3/2 B/ c d | e3/2 d/{ef} e3/2 d/ | c2{dc} B z | d2 e3/2 c/ | B2 G2 | (_ABc>A) | %13
w: Ah! Ré- veil- le-|toi, ré- veil- le-|toi, per- drix mi-|gno- ne.|Ouvre au ma-|tin tes|ai- * * *|
 D2 z2 | cd e3/2 c/ | B2 G2 | (_ABc>A) | G2 z2 |!pp! d3/2 d/ e3/2 c/ | B2 G2 | _A3/2 B/ c3/2 A/ | %21
w: les,|Ouvre * au ma-|tin tes|ai- * * *|les,|Trois grains de beau-|té, mon|cœur en est brû-|
 d2 z2 | c3/2 d/ e3/2 c/ | B2 G2 | _A3/2 B/ c3/2 A/ | G2 z2 | z4 | z4 |!p! z B B B | d z/ B/ c d | %30
w: lé!|Trois grains de beau-|té mon|cœur en est brû-|lé.|||Vois le ru-|ban, le ru- ban|
 e3/2 d/ e3/2 d/ | c2{dc} B2 | z d d d | d z/ B/ c d | e3/2 d/ e3/2 d/ | c2 B z | d2 e3/2 c/ | %37
w: d'or que je t'ap-|por- te.|Vois le ru-|ban, le ru- ban|d'or que je t'ap-|por- te,|pour le nou-|
 B2 G2 | _A B c3/2 A/ | d2- d z | (cd) e3/2 c/ | B2 G2 | _A B c3/2 A/ | G2 z2 | %44
w: er au-|tour de tes che-|veux, _|pour * le nou-|er au-|tour de tes che-|veux.|
!pp! d3/2 d/ e3/2 c/ | B2 G2 | _A3/2 B/ c3/2 A/ | d2 z2 | %48
w: Si tu veux, ma|bel- le,|viens nous ma- ri|er!|
"^Rall."!p![Q:1/4=80]"^T" c"^poco" d[Q:1/4=75]"^T" e3/2"^a"[Q:1/4=70]"^T" c/ |"^poco" B2 G2 | %50
w: Dans nos deux fa-|mil- les,|
[Q:1/4=65]"^T" _A3/2 B/[Q:1/4=60]"^T" c3/2 A/ | G2 z2 | !fermata!z4 |] %53
w: tous sont al- li-|és!||
V:2
!p![I:staff +1] (3d/"^très doux"[I:staff -1]G/g/[I:staff +1](3G/[I:staff -1]g/G/[I:staff +1] (3d/[I:staff -1]G/g/[I:staff +1](3G/[I:staff -1]g/G/ | %1
[I:staff +1] (3d/[I:staff -1]G/g/[I:staff +1](3G/[I:staff -1]g/G/[I:staff +1] (3d/[I:staff -1]G/g/[I:staff +1](3G/[I:staff -1]g/G/ | %2
[I:staff +1] (3!>!d/[I:staff -1]G/g/[I:staff +1](3G/[I:staff -1]g/G/[I:staff +1] (3d/[I:staff -1]G/g/[I:staff +1](3G/[I:staff -1]g/G/ | %3
[I:staff +1] (3!>!d/[I:staff -1]G/g/[I:staff +1](3G/[I:staff -1]g/G/[I:staff +1] (3!>!c/[I:staff -1]G/g/[I:staff +1](3G/[I:staff -1]g/G/ | %4
[I:staff +1] (3!>!e/[I:staff -1]G/g/[I:staff +1](3G/[I:staff -1]g/G/[I:staff +1] (3e/[I:staff -1]G/g/[I:staff +1](3G/[I:staff -1]g/G/ | %5
[I:staff +1] (3!>!c/[I:staff -1]G/g/[I:staff +1](3G/[I:staff -1]g/G/[I:staff +1] (3!>!B/[I:staff -1]G/g/[I:staff +1](3G/[I:staff -1]g/G/ | %6
[I:staff +1] (3!>!d/[I:staff -1]G/g/[I:staff +1](3G/[I:staff -1]g/G/[I:staff +1] (3d/[I:staff -1]G/g/[I:staff +1](3G/[I:staff -1]g/G/ | %7
[I:staff +1] (3!>!d/[I:staff -1]G/g/[I:staff +1](3G/[I:staff -1]g/G/[I:staff +1] (3!>!c/[I:staff -1]G/g/[I:staff +1](3G/[I:staff -1]g/G/ | %8
[I:staff +1] (3!>!e/[I:staff -1]G/g/[I:staff +1](3G/[I:staff -1]g/G/[I:staff +1] (3e/[I:staff -1]G/g/[I:staff +1](3G/[I:staff -1]g/G/ | %9
[I:staff +1] (3!>!c/[I:staff -1]G/g/[I:staff +1](3G/[I:staff -1]g/G/[I:staff +1] (3!>!B/[I:staff -1]G/g/[I:staff +1](3G/[I:staff -1]g/G/ | %10
[I:staff +1] (3[F_ABd]/[I:staff -1]G/g/[I:staff +1](3G/[I:staff -1]g/G/[I:staff +1] (3[EBe]/[I:staff -1]G/g/[I:staff +1](3G/[I:staff -1]g/G/ | %11
[I:staff +1] (3[DF_AB]/[I:staff -1]G/g/[I:staff +1](3G/[I:staff -1]g/G/[I:staff +1] (3[^C=E=c]/[I:staff -1]G/g/[I:staff +1](3G/[I:staff -1]g/G/ | %12
[I:staff +1] (3[=C_E^F_A]/[I:staff -1]G/g/[I:staff +1](3G/[I:staff -1]g/G/[I:staff +1] (3g/[I:staff -1]G/g/[I:staff +1](3G/[I:staff -1]g/G/ | %13
[I:staff +1] (3[G,D]/[I:staff -1]G/g/[I:staff +1](3G/[I:staff -1]g/G/[I:staff +1] (3g/[I:staff -1]G/g/[I:staff +1](3G/[I:staff -1]g/G/ | %14
[I:staff +1] (3[F_ABc]/[I:staff -1]G/g/[I:staff +1](3G/[I:staff -1]g/G/[I:staff +1] (3[EBe]/[I:staff -1]G/g/[I:staff +1](3c/[I:staff -1]g/G/ | %15
[I:staff +1] (3[DF_AB]/[I:staff -1]G/g/[I:staff +1](3G/[I:staff -1]g/G/[I:staff +1] (3[^C=E=c]/[I:staff -1]G/g/[I:staff +1](3G/[I:staff -1]g/G/ | %16
[I:staff +1] (3[=C_E^F_A]/[I:staff -1]G/g/[I:staff +1](3G/[I:staff -1]g/G/[I:staff +1] (3g/[I:staff -1]G/g/[I:staff +1](3G/[I:staff -1]g/G/ | %17
[I:staff +1] (3[G,D]/[I:staff -1]G/g/[I:staff +1](3G/[I:staff -1]g/G/[I:staff +1] (3d/[I:staff -1]G/g/[I:staff +1](3g/[I:staff -1]g'/G/ | %18
!pp![I:staff +1] (3[f_abd']/[I:staff -1]g/g'/[I:staff +1](3g/[I:staff -1]g'/g/[I:staff +1] (3[ebe']/[I:staff -1]g/g'/[I:staff +1](3g/[I:staff -1]g'/g/ | %19
[I:staff +1] (3[df_ab]/[I:staff -1]g/g'/[I:staff +1](3g/[I:staff -1]g'/g/[I:staff +1] (3[^c=e=c']/[I:staff -1]g/g'/[I:staff +1](3g/[I:staff -1]g'/g/ | %20
[I:staff +1] (3[=c_e^f_a]/[I:staff -1]g/g'/[I:staff +1](3g/[I:staff -1]g'/g/[I:staff +1] (3g'/[I:staff -1]g/g'/[I:staff +1](3g/[I:staff -1]g'/g/ | %21
[I:staff +1] (3[Gd]/[I:staff -1]g/g'/[I:staff +1](3g/[I:staff -1]g'/g/[I:staff +1] (3g'/[I:staff -1]g/g'/[I:staff +1](3g/[I:staff -1]g'/g/ | %22
[I:staff +1] (3[f_abc']/[I:staff -1]g/g'/[I:staff +1](3d'/[I:staff -1]g'/g/[I:staff +1] (3[ebe']/[I:staff -1]g/g'/[I:staff +1](3c'/[I:staff -1]g'/g/ | %23
[I:staff +1] (3[df_ab]/[I:staff -1]g/g'/[I:staff +1](3g/[I:staff -1]g'/g/[I:staff +1] (3[^c=e=c']/[I:staff -1]g/g'/[I:staff +1](3g/[I:staff -1]g'/g/ | %24
[I:staff +1] (3[=c_e^f_a]/[I:staff -1]g/g'/[I:staff +1](3g/[I:staff -1]g'/g/[I:staff +1] (3g'/[I:staff -1]g/g'/[I:staff +1](3g/[I:staff -1]g'/g/ | %25
[I:staff +1] (3[Gd]/[I:staff -1]g/g'/[I:staff +1](3g/[I:staff -1]g'/g/[I:staff +1] (3g'/[I:staff -1]g/g'/[I:staff +1](3g/[I:staff -1]g'/g/ | %26
[I:staff +1] (3d/[I:staff -1]G/g/[I:staff +1](3G/[I:staff -1]g/G/[I:staff +1] (3d/[I:staff -1]G/g/[I:staff +1](3G/[I:staff -1]g/G/ | %27
[I:staff +1] (3d/[I:staff -1]G/g/[I:staff +1](3G/[I:staff -1]g/G/[I:staff +1] (3d/[I:staff -1]G/g/[I:staff +1](3G/[I:staff -1]g/G/ | %28
[I:staff +1] (3d/[I:staff -1]G/g/[I:staff +1](3[EF]/[I:staff -1]g/G/[I:staff +1] (3d/[I:staff -1]G/g/[I:staff +1](3[EF]/[I:staff -1]g/G/ | %29
[I:staff +1] (3d/[I:staff -1]G/g/[I:staff +1](3[EF]/[I:staff -1]g/G/[I:staff +1] (3c/[I:staff -1]G/g/[I:staff +1](3[EF]/[I:staff -1]g/G/ | %30
[I:staff +1] (3B/[I:staff -1]G/g/[I:staff +1](3[EF]/[I:staff -1]g/G/[I:staff +1] (3A/[I:staff -1]G/g/[I:staff +1](3[EF]/[I:staff -1]g/G/ | %31
[I:staff +1] (3c/[I:staff -1]G/g/[I:staff +1](3[DF]/[I:staff -1]g/G/[I:staff +1] (3B/[I:staff -1]G/g/[I:staff +1](3[DF]/[I:staff -1]g/G/ | %32
[I:staff +1] (3[Ed]/[I:staff -1]G/g/[I:staff +1](3F,/[I:staff -1]g/G/[I:staff +1] (3[Ed]/[I:staff -1]G/g/[I:staff +1](3F,/[I:staff -1]g/G/ | %33
[I:staff +1] (3[Ed]/[I:staff -1]G/g/[I:staff +1](3F,/[I:staff -1]g/G/[I:staff +1] (3[Ec]/[I:staff -1]G/g/[I:staff +1](3F,/[I:staff -1]g/G/ | %34
[I:staff +1] (3[EB]/[I:staff -1]G/g/[I:staff +1](3F,/[I:staff -1]g/G/[I:staff +1] (3[EA]/[I:staff -1]G/g/[I:staff +1](3F,/[I:staff -1]g/G/ | %35
[I:staff +1] (3[Dc]/[I:staff -1]G/g/[I:staff +1](3F,/[I:staff -1]g/G/[I:staff +1] (3[DB]/[I:staff -1]G/g/[I:staff +1](3F,/[I:staff -1]g/G/ | %36
[I:staff +1] (3[F,_A,D]/[I:staff -1]G/g/[I:staff +1](3B,,/[I:staff -1]g/G/[I:staff +1] (3[G,CE]/[I:staff -1]G/g/[I:staff +1](3B,,/[I:staff -1]g/G/ | %37
[I:staff +1] (3[_A,DF]/[I:staff -1]G/g/[I:staff +1](3B,,/[I:staff -1]g/G/[I:staff +1] (3[B,EG]/[I:staff -1]G/g/[I:staff +1](3B,,/[I:staff -1]g/G/ | %38
[I:staff +1] (3[CE_A]/[I:staff -1]G/g/[I:staff +1](3B,/[I:staff -1]g/G/[I:staff +1] (3[DAB]/[I:staff -1]G/g/[I:staff +1](3B,/[I:staff -1]g/G/ | %39
 (3z/ (G/d/(3g/d/G/) (3(G/D/G,/(3G,/D/G/) | %40
[I:staff +1] (3[E,_A,C]/[I:staff -1]G/g/[I:staff +1](3_A,,/[I:staff -1]g/G/[I:staff +1] (3[E,A,C]/[I:staff -1]G/g/[I:staff +1](3A,,/[I:staff -1]g/G/ | %41
[I:staff +1] (3[F,B,D]/[I:staff -1]G/g/[I:staff +1](3_A,,/[I:staff -1]g/G/[I:staff +1] (3[G,CE]/[I:staff -1]G/g/[I:staff +1](3A,,/[I:staff -1]g/G/ | %42
[I:staff +1] (3[CE_A]/[I:staff -1]G/g/[I:staff +1](3F,/[I:staff -1]g/G/[I:staff +1] (3[EAc]/[I:staff -1]G/g/[I:staff +1](3F,/[I:staff -1]g/G/ | %43
[I:staff +1] (3D/[I:staff -1]G/g/[I:staff +1](3G,/[I:staff -1]g/G/[I:staff +1] (3G/[I:staff -1]d/g/[I:staff +1](3d/[I:staff -1]g/d'/ | %44
[I:staff +1] (3[f_abd']/[I:staff -1]g/g'/[I:staff +1](3g/[I:staff -1]g'/g/[I:staff +1] (3[ebe']/[I:staff -1]g/g'/[I:staff +1](3g/[I:staff -1]g'/g/ | %45
[I:staff +1] (3[df_ab]/[I:staff -1]g/g'/[I:staff +1](3g/[I:staff -1]g'/g/[I:staff +1] (3[^c=e=c']/[I:staff -1]g/g'/[I:staff +1](3g/[I:staff -1]g'/g/ | %46
[I:staff +1] (3[=c_e^f_a]/[I:staff -1]g/g'/[I:staff +1](3g/[I:staff -1]g'/g/[I:staff +1] (3g'/[I:staff -1]g/g'/[I:staff +1](3g/[I:staff -1]g'/g/ | %47
[I:staff +1] (3d/[I:staff -1]G/g/[I:staff +1](3G/[I:staff -1]g/G/[I:staff +1] (3G/[I:staff -1]d/g/[I:staff +1](3D/[I:staff -1]g/d'/ | %48
[K:bass][I:staff +1] (3[F,_A,B,C]/"^Rall."[I:staff -1]G,/G/[I:staff +1](3D/"^poco"[I:staff -1]G/G,/[I:staff +1] (3[E,B,E]/[I:staff -1]G,/G/[I:staff +1](3C/"^a"[I:staff -1]G/G,/ | %49
[I:staff +1] (3[D,F,_A,B,]/[I:staff -1]G,/G/[I:staff +1](3G,/"^poco"[I:staff -1]G/G,/[I:staff +1] (3[^C,=E,=C]/[I:staff -1]G,/G/[I:staff +1](3G,/[I:staff -1]G/G,/ | %50
[I:staff +1] (3[=C,_E,^F,_A,]/[I:staff -1]G,/G/[I:staff +1](3G,/[I:staff -1]G/G,/[I:staff +1] (3G/[I:staff -1]G,/G/[I:staff +1](3G,/[I:staff -1]G/G,/ | %51
[I:staff +1] (3[G,,D,]/[I:staff -1]G,/G/[I:staff +1](3G,/[I:staff -1]G/G,/[K:treble][I:staff +1] (3[G,D]/[I:staff -1]G/g/[I:staff +1](3G/[I:staff -1]g/G/ | %52
 z2!8va(! !fermata![d'g'd'']2!8va)! |] %53
V:3
 x4 | x4 | x4 | x4 | x4 | x4 | x4 | x4 | x4 | x4 | x4 | x4 | x4 | x4 | x4 | x4 | x4 | x4 | x4 | %19
 x4 | x4 | x4 | x4 | x4 | x4 | x4 | x4 | x4 | x4 | x4 | x4 | x4 | x4 | x4 | x4 | x4 |[K:bass] x4 | %37
 x4 |[K:treble] x4 | [EB]B,[K:bass] B,E, | x4 | x4 |[K:treble] x4 | x4 | x4 | x4 | x4 | x4 | %48
[K:bass] x4 | x4 | x4 | x2[K:treble] x2 | z2 !fermata!g2 |] %53
V:4
 x4 | x4 | x4 | x4 | x4 | x4 | x4 | x4 | x4 | x4 | x4 | x4 | x4 | x4 | x4 | x4 | x4 | x4 | x4 | %19
 x4 | x4 | x4 | x4 | x4 | x4 | x4 | x4 | x4 | x4 | x4 | x4 | x4 | x4 | x4 | x4 | x4 |[K:bass] x4 | %37
 x4 |[K:treble] x4 | x2[K:bass] x2 | x4 | x4 |[K:treble] x4 | x4 | x4 | x4 | x4 | x4 |[K:bass] x4 | %49
 x4 | x4 | x2[K:treble] x2 | [Gd]4 |] %53

